icons/hospital-line.svg

<svg xmlns="http://www.w3.org/2000/svg" width="24" height="24" fill="none"><g clip-path="url(#a)"><g><path fill="#121212" d="M8 20V14H16V20H19V4H5V20H8ZM10 20H14V16H10V20ZM21 20H23V22H1V20H3V3C3 2.73478 3.10536 2.48043 3.29289 2.29289C3.48043 2.10536 3.73478 2 4 2H20C20.2652 2 20.5196 2.10536 20.7071 2.29289C20.8946 2.48043 21 2.73478 21 3V20ZM11 8V6H13V8H15V10H13V12H11V10H9V8H11Z"/></g></g><defs><clipPath id="a"><rect width="24" height="24" fill="white"/></clipPath></defs></svg>

<svg width="24" height="24" fill="none" xmlns="http://www.w3.org/2000/svg"><g clip-path="url(#a)"><path d="M8 20v-6h8v6h3V4H5v16h3Zm2 0h4v-4h-4v4Zm11 0h2v2H1v-2h2V3a1 1 0 0 1 1-1h16a1 1 0 0 1 1 1v17ZM11 8V6h2v2h2v2h-2v2h-2v-2H9V8h2Z" /></g><defs><clipPath id="a"><path fill="#fff" d="M0 0h24v24H0z"/></clipPath></defs></svg>
